X:71
T: LEB WOHL DU THEURES LAND DAS MICH GEBOREN
N: B0095
O: Europa, Mitteleuropa, Deutschland
R: Helden -, Ehren -, Gedaechtnis -, Kriegs - Lied
M: 4/4
L: 1/8
K: C
EEC | G3GGGAG | G2F2z
FGF | E3EECGE | D4z
DDD | G3GGGAB | BAA3
AcA | G3GG^FBA | G4z
GGG | d3dcBAG | c2G2z
GAB | c3EAGEC | D4z
GGF | E3EFEFD | AGG2z
cBA | G3GAGFD | C4z
GGF | E3EFEFD | AGG2z
cBA | G3GAGFD | C4z

